X: 1665
T: Lindsay Carr's Lead-up to the 1st Set
B: australian traditional tunes wiki
M:6/8
L:1/8
R: Jig
Q: 3/8=100
K:D
V:1 
|:"D"FAF "G"D2d|"A7"c2B "D"A3|FAF D2F|"A7"E3E2A|"D"FAF "G"D2d|"A7"c2B "D"A3|FAF "A7"E2E|"D"D3D2z:|
|:"D"f2ed2d|"A7"cdB A2A|"D"f2e dcd|"A7"e3e2A|"D"f2ed2d|"A7"cdB A2A|"D"FAF "A7"E2E|"D"D3D2z:|
% abcbook-tune_id 6342d53ab85588e9258b28c2


% abcbook-boost 0
% abcbook-tablature 
% abcbook-transpose 
% abcbook-lastupdated 1665324376922
% abcbook-soundfonts 
% abcbook-repeats 1
% NFF Book 2015

